icons/StopCircle.svg

<svg width="24" height="24" viewBox="0 0 24 24" fill="none" xmlns="http://www.w3.org/2000/svg">
<path fill-rule="evenodd" clip-rule="evenodd" d="M12,3.75c-4.55635,0 -8.25,3.69365 -8.25,8.25c0,4.5563 3.69365,8.25 8.25,8.25c4.5563,0 8.25,-3.6937 8.25,-8.25c0,-4.55635 -3.6937,-8.25 -8.25,-8.25zM2.25,12c0,-5.38478 4.36522,-9.75 9.75,-9.75c5.3848,0 9.75,4.36522 9.75,9.75c0,5.3848 -4.3652,9.75 -9.75,9.75c-5.38478,0 -9.75,-4.3652 -9.75,-9.75zM7.75,9.5c0,-0.9665 0.7835,-1.75 1.75,-1.75h5c0.9665,0 1.75,0.7835 1.75,1.75v5c0,0.9665 -0.7835,1.75 -1.75,1.75h-5c-0.9665,0 -1.75,-0.7835 -1.75,-1.75z" fill="#002B51"/>
</svg>

<svg width="24" height="24" viewBox="0 0 24 24" fill="none" xmlns="http://www.w3.org/2000/svg">
<path fill-rule="evenodd" clip-rule="evenodd" d="M12 3.75C7.44365 3.75 3.75 7.44365 3.75 12C3.75 16.5563 7.44365 20.25 12 20.25C16.5563 20.25 20.25 16.5563 20.25 12C20.25 7.44365 16.5563 3.75 12 3.75ZM2.25 12C2.25 6.61522 6.61522 2.25 12 2.25C17.3848 2.25 21.75 6.61522 21.75 12C21.75 17.3848 17.3848 21.75 12 21.75C6.61522 21.75 2.25 17.3848 2.25 12ZM7.75 9.5C7.75 8.5335 8.5335 7.75 9.5 7.75H14.5C15.4665 7.75 16.25 8.5335 16.25 9.5V14.5C16.25 15.4665 15.4665 16.25 14.5 16.25H9.5C8.5335 16.25 7.75 15.4665 7.75 14.5V9.5Z" fill="#002B51"/>
</svg>
